X:159
T:Lady Doll Sinclair* (reel)
B:CRE2.237 (gan ainm)
F:file ID: cre.2/159lady_ds
S:Tommy Peoples
N:aka "Matt Peoples'"
L:1/8
M:4/4
Q:180
R:reel
K:Am
E|A2eA cAeA|Bggd BGGB|(3AGA eA cAeA|dBGB A3E|
A2eA cAeA|Bggd BGGB|A2eA cAeA|dBGB A3||
e|aee2 aee^f|gB (3BAB g^fgb|aede aeed|(3BAB GB A2 Ae|
aee2 aee^f|gB (3BAB g^fgb|a^fge fded|(3BAB GB A3||

%%%

